icons/1_Primary/Travala.com.svg

<svg width="1024" height="1024" fill="none" xmlns="http://www.w3.org/2000/svg"><g clip-path="url(#a)"><path d="M512 1024c282.77 0 512-229.23 512-512S794.77 0 512 0 0 229.23 0 512s229.23 512 512 512Z" fill="#54688C"/><path d="M512 768c141.38 0 256-114.62 256-256S653.38 256 512 256 256 370.62 256 512s114.62 256 256 256Zm-39.52-322.94h-72.63a8.045 8.045 0 0 1-5.83-2.36 8.059 8.059 0 0 1-2.36-5.83v-48.42a8.045 8.045 0 0 1 2.36-5.83 8.059 8.059 0 0 1 5.83-2.36h207.22a24.619 24.619 0 0 1 24.57 24.56v31.69a8.045 8.045 0 0 1-2.36 5.83 8.059 8.059 0 0 1-5.83 2.36h-73v204.73a8.045 8.045 0 0 1-2.36 5.83 8.059 8.059 0 0 1-5.83 2.36H497a24.62 24.62 0 0 1-24.57-24.57l.05-187.99Z" fill="#fff"/></g><defs><clipPath id="a"><path fill="#fff" d="M0 0h1024v1024H0z"/></clipPath></defs></svg>

<svg width="1024" height="1024" viewBox="0 0 1024 1024" fill="none" xmlns="http://www.w3.org/2000/svg">
<g clip-path="url(#clip0_2_3720)">
<path d="M512 1024C794.77 1024 1024 794.77 1024 512C1024 229.23 794.77 0 512 0C229.23 0 0 229.23 0 512C0 794.77 229.23 1024 512 1024Z" fill="#54688C"/>
<path d="M512 768C653.38 768 768 653.38 768 512C768 370.62 653.38 256 512 256C370.62 256 256 370.62 256 512C256 653.38 370.62 768 512 768ZM472.48 445.06H399.85C398.77 445.078 397.697 444.878 396.695 444.472C395.694 444.067 394.784 443.464 394.02 442.7C393.256 441.936 392.653 441.026 392.248 440.025C391.842 439.023 391.642 437.95 391.66 436.87V388.45C391.642 387.37 391.842 386.297 392.248 385.295C392.653 384.294 393.256 383.384 394.02 382.62C394.784 381.856 395.694 381.253 396.695 380.848C397.697 380.442 398.77 380.242 399.85 380.26H607.07C613.581 380.273 619.821 382.865 624.425 387.467C629.03 392.07 631.624 398.309 631.64 404.82V436.51C631.658 437.59 631.458 438.663 631.052 439.665C630.647 440.666 630.044 441.576 629.28 442.34C628.516 443.104 627.606 443.707 626.605 444.112C625.603 444.518 624.53 444.718 623.45 444.7H550.45V649.43C550.468 650.51 550.268 651.583 549.862 652.585C549.457 653.586 548.854 654.496 548.09 655.26C547.326 656.024 546.416 656.627 545.415 657.032C544.413 657.438 543.34 657.638 542.26 657.62H497C490.488 657.607 484.246 655.014 479.641 650.409C475.036 645.804 472.443 639.562 472.43 633.05L472.48 445.06Z" fill="white"/>
</g>
<defs>
<clipPath id="clip0_2_3720">
<rect width="1024" height="1024" fill="white"/>
</clipPath>
</defs>
</svg>
